docs/assets/img/marker.svg

<svg xmlns="http://www.w3.org/2000/svg" viewBox="0 0 32 32">
    <path style="text-indent:0;text-align:start;line-height:normal;text-transform:none;block-progression:tb;-inkscape-font-specification:Bitstream Vera Sans" d="M 16 3 C 11.041484 3 7 7.0414839 7 12 C 7 13.406296 7.5697902 15.019621 8.34375 16.78125 C 9.1177098 18.542879 10.113372 20.412329 11.125 22.15625 C 13.148256 25.644091 15.1875 28.5625 15.1875 28.5625 L 16 29.75 L 16.8125 28.5625 C 16.8125 28.5625 18.851744 25.644091 20.875 22.15625 C 21.886628 20.412329 22.88229 18.542879 23.65625 16.78125 C 24.43021 15.019621 25 13.406296 25 12 C 25 7.0414839 20.958516 3 16 3 z M 16 5 C 19.877484 5 23 8.1225161 23 12 C 23 12.802704 22.56979 14.316192 21.84375 15.96875 C 21.11771 17.621308 20.113372 19.452421 19.125 21.15625 C 17.552794 23.866537 16.578771 25.299905 16 26.15625 C 15.421229 25.299905 14.447206 23.866537 12.875 21.15625 C 11.886628 19.452421 10.88229 17.621308 10.15625 15.96875 C 9.4302098 14.316192 9 12.802704 9 12 C 9 8.1225161 12.122516 5 16 5 z M 16 10 C 14.895431 10 14 10.895431 14 12 C 14 13.104569 14.895431 14 16 14 C 17.104569 14 18 13.104569 18 12 C 18 10.895431 17.104569 10 16 10 z" overflow="visible" font-family="Bitstream Vera Sans"></path>
</svg>

<svg xmlns="http://www.w3.org/2000/svg" viewBox="0 0 32 32"><path style="text-indent:0;text-align:start;line-height:normal;text-transform:none;block-progression:tb;-inkscape-font-specification:Bitstream Vera Sans" d="M16 3c-4.959 0-9 4.041-9 9 0 1.406.57 3.02 1.344 4.781.774 1.762 1.77 3.631 2.781 5.375a101.39 101.39 0 0 0 4.063 6.407L16 29.75l.813-1.188s2.039-2.918 4.062-6.406c1.012-1.744 2.007-3.613 2.781-5.375C24.43 15.02 25 13.406 25 12c0-4.959-4.041-9-9-9zm0 2c3.877 0 7 3.123 7 7 0 .803-.43 2.316-1.156 3.969-.726 1.652-1.73 3.483-2.719 5.187-1.572 2.71-2.546 4.144-3.125 5-.579-.856-1.553-2.29-3.125-5-.988-1.704-1.993-3.535-2.719-5.187C9.43 14.316 9 12.803 9 12c0-3.877 3.123-7 7-7zm0 5a2 2 0 1 0 0 4 2 2 0 0 0 0-4z" overflow="visible" font-family="Bitstream Vera Sans"/></svg>
